X:1
T:A quoy tient il
T:A quoy tient il
T:Nicolas Gombert
T:Source : 28 Chansons nouvelles à 4 parties---Paris---P.Attaignant---1531. Editor : André Vierendeels (10/01/15).
C:Nicolas Gombert
%%score [ 1 [ 2 3 4 ] ]
L:1/8
Q:1/4=90
M:4/4
K:C
V:1 treble nm="Superius" snm="S"
V:2 treble-8 nm="Tenor 1" snm="T 1"
V:3 treble-8 nm="Tenor 2" snm="T 2"
V:4 treble-8 nm="Tenor 3" snm="T 3"
V:1
 z8 | z8 | z8 | z8 | G4 A2 B2 | c2 BA G3 A | BG c4 B2 | AG c4 B2 | c2 BA G2 G2 | A2 B2 c4- | %10
w: ||||A quoy tient|il, _ _ _ à|quoy _ _ tient|il _ _ dont|vient ce- * la, à|quoy tient il|
 c2 B2 A2 A2 | G3 A Bc d2- | dc c4 B2 | c4 z4 | z8 | z8 | z8 | z2 G2 A2 B2 | E2 A4 G2 | A2 GF E4 | %20
w: _ _ _ dont|vient _ _ _ _|_ _ _ ce-|la,||||que ie suys|tant a- mou-|reux, _ _ _|
 z2 G2 A2 B2 | E2 F2 G4 | F6 d2- | dc BA G2 A2- | AG G4 F2 | G8- | G8 | z8 | z2 G2 c2 d2 | %29
w: que ie suys|tant a- mou-|reux del-|||le,|_||et quant ie|
 e2 e2 f2 e2- | e2 dc d2 e2- | ed d4 c2 | d4 z4 | z2 G2 c2 d2- | dc c4 B2 | c4 z4 | z8 | z4 z2 f2 | %38
w: suys au- pres del-|||le|au- pres del-||le,||ie|
 e3 d c2 B2 | A2 GA Bc d2- | dc c4 B2 | c3 G A2 B2 | c4 z4 | z2 G2 A2 B2 | c2 A2 B2 c2 | %45
w: ne luy o- se|de- man- * * * *|* * der ce-|la, a quoy tient|il,|à quoy tient|il,- à quoy tient|
 d3 c B2 A2- | AG G4 F2 | G4 z4 | z2 G2 A2 B2 | c2 A2 B2 c2 | d3 c B2 A2- | AG G4 F2 | G8 |] %53
w: il dont vient _|_ _ _ ce-|la,|à quoy tient|il, à quoy tient|il dont vient _|_ _ _ ce-|la?|
V:2
 z8 | z8 | z4 z2 c2 | d2 e2 f4- | f2 e2 d2 d2 | c2 d2 e4 | d2 c2 d4 | c4 z4 | z8 | z4 c4 | %10
w: ||A|quoy tient il|_ dont vient ce-|la, dont vient|_ _ ce-|la,||à|
 d2 e2 f2 cd | ef g4 f2 | a4 g4- | g2 f2 e4 | z8 | z4 z2 c2 | d2 e2 A2 d2- | dc BG c2 d2- | %18
w: quoy vient il _ _|_ _ _ dont|vient ce-|* * la,||que|ie suys tant a-|* * * * * mou-|
 dc A2 B4 | A4 z2 c2 | d2 e2 A2 e2- | e2 dc B2 c2 | d2 a3 g fe | d2 g3 f ed | c2 B2 d4 | %25
w: * * reux del-|le, que|ie suys tant a-|* * * mou- reux|del- * * * *|||
 B3 G c2 d2 | e c2 B c3 e | d c2 B c4 | z8 | z2 c2 f2 g2 | a2 a2 ba ge | a2 gf e4 | z2 d2 e2 f2 | %33
w: le, et quant ie|suys au- * pres del-|* * * le,||et quant ie|suys au- pres _ _ _|del- * * le,|et quant ie|
 g4 a4- | a2 f2 g4 | e4 z2 f2 | e2 d2 cB e2 | dc c4 B2 | c3 d ec d2 | c4 z2 d2 | e2 f2 g2 d2 | %41
w: suys au-|* pres del-|le, ie|ne luy o- * se|de- * man- *|der _ _ _ ce-|la, à|quoy tient il dont|
 ef ge f2 d2 | c2 c2 d2 e2 | f2 e3 f g2- | g2 f2 g4 | a4 g2 f2- | fe dc d2 d2- | d2 e2 f2 g2- | %48
w: vient _ _ _ _ ce-|la, à quoy tient|il, dont _ _|_ _ vient|_ _ ce-|* * * * * la,|_ à quoy tient|
 g2 e3 f g2- | g2 f2 g4 | a4 g2 f2- | fe dc d4 | d8 |] %53
w: _ il _ _|_ dont vient|ce- * *||la?|
V:3
 G4 A2 B2 | c6 B2 | A2 A2 G3 A | BA c4 B2 | c4 z4 | z4 z2 c2 | d2 e2 f4- | f2 e2 d2 d2 | %8
w: A quoy tient|il dont|vient ce- * *||la,|à|quoy tient il|_ dont vient ce-|
 c2 d2 ef ge | f2 g4 f2 | g2 G2 A3 B | cd e4 d2 | e2 f2 d4 | c4 z2 c2 | d2 e2 A2 d2- | %15
w: ||la, dont vient _|_ _ _ _|* * ce-|la, que|ie suys tant a-|
 dc BA cB AG | A2 B2 c2 BA | B4 A2 G2- | GA F2 E4 | z8 | z8 | c4 d2 e2 | A4 d3 c | BA GA BG c2- | %24
w: |* mou- reux _ _|_ _ del-|* * * le,|||que ie suys|tant a- *|* * * * * * mou-|
 cB G2 A4 | G4 z2 F2 | c2 d2 e2 e2 | f2 e4 dc | d2 c3 A B2 | c2 e2 d2 c2- | c2 BA G4 | z8 | %32
w: * * reux del-|le, et|quant ie suys au-|pres del- * *|||* * * le,||
 G4 c2 d2 | e2 e2 f4 | e2 dc d4 | c4 z2 c2 | B2 A2 G2 B2 | A2 G4 F2 | G4 g4 | f2 e2 d3 B | c4 d4 | %41
w: et quant ie|suys au- pres|del- * * *|le, ie|ne luy o- se|de- man- *|der ce-|||
 c2 e2 d3 d | e2 f2 g4 | z8 | c4 d2 e2 | f3 e d2 c2- | c2 B2 A4 | G2 B2 c2 d2 | e4 z4 | c4 d2 e2 | %50
w: la, à quoy _|_ tient il,||à quoy tient|il _ _ dont|_ vient ce-|la, à quoy tient|il,|à quoy tient|
 f3 e d2 c2- | c2 B2 A4 | G8 |] %53
w: il _ _ dont|_ vient ce-|la?|
V:4
 z4 D4 | E2 F2 G4- | G2 F2 E4 | D2 C2 D4 | C4 z2 G2 | A2 B2 c4 | z8 | z4 G4 | A2 B2 c4- | %9
w: A|quoy tient il|_ dont vient|_ _ ce-|la, à|quoy tient il,||à|quoy tient il|
 c2 B2 A2 A2 | G2 G2 D2 F2 | C2 c2 G2 B2 | A2 F2 G2 G2 | C2 F2 G2 A2 | D2 G3 F F2 | G3 F ED F2- | %16
w: _ dont vient ce-|la, dont vient ce-|la, dont vient ce-|la, dont vient ce-|la, que ie suys|tant a- * mou-|reux _ _ _ del-|
 FD G4 F2 | G4 z4 | z8 | F4 G2 A2 | D2 C2 F2 G2 | A4 G2 FE | D8 | G3 F ED C2 | E4 D4 | E4 z4 | %26
w: |le,||que ie suys|tant a- mou- reux|del- * * *||||le,|
 z4 C4 | F2 G2 A2 A2 | GF ED EF D2 | C4 z4 | z4 z2 C2 | F2 G2 A2 A2 | B2 B2 A2 GF | E2 G2 F2 D2 | %34
w: et|quant ie suys au-|pres _ _ _ del- * *|le,|et|quant ie suys au-|pres del- * * *||
 A4 G4 | z2 c2 B2 A2 | G2 F2 E2 G2 | F2 E2 D4 | C4 z2 G2 | A2 c2 G2 B2 | A2 A2 G2 G2 | C4 z4 | %42
w: le, _|ie ne luy|o- se de- man-|* der ce-|la, ie|ne luy o- se|de- man- der ce-|la,|
 A4 B2 c2 | d2 c4 B2 | A4 G2 FE | D2 F2 G2 A2 | F2 G2 D4 | z2 G2 A2 B2 |"^#" c6 B2 | A2 A2 G2 FE | %50
w: à quoy tient|il, à quoy|tient il, _ _|_ dont vient _|_ ce- la,|à quoy tient|il dont|vient ce- * * *|
 D2 F2 G2 A2 | F2 G2 D4 | G8 |] %53
w: la, dont vient- *|* * ce-|la?|

